public/avatar/shoe/114.svg

<svg xmlns:xlink="http://www.w3.org/1999/xlink" height="38.3" width="36.05" xmlns="http://www.w3.org/2000/svg"><use height="25.9" transform="translate(7.7 2.25)" width="24.65" xlink:href="#a"/><defs><g id="a"><path d="m.25-11.5-.3.15-.2-.1-.2-.15-3.9-.2-.15.05-.05-.05q-1.5-.6-2.6 0l-.2.25-.15.3q0 6.25-.85 9.95-1.55 2-4.55 3h-.05q-3.1 1.5-2.6 5.55l.15.45v.35l.3 1.7.3 1.7.1.2.3.2q7.2 1.75 14.9.3l.3-.1.1-.25.55-1.15q.95-.25 2.15.55v.05l.45.1h.1l1.9-.45L8 9.85l.05-2.1v-4.8q-.3-5.75-1.6-13.55-3.3-1.2-6.2-.9Z" fill="none" stroke="#000" stroke-linecap="round" stroke-linejoin="round" transform="translate(16.1 12.6)"/><path d="M-3-11.65q1.5-.1 2.7.8l2.75-.1Q4.1-3.4 2.3 1.35q-6.5 4.2-6.6 5.15-1.65 2.7-.6 5.7l-5.55-.25q-4.2-3.9-.8-7.8 3.7-1.3 7.4-3.9 1.9-6 .85-11.9" fill="#603" fill-rule="evenodd" transform="translate(16.1 12.6)"/><path d="m-10.45 11.95-3.8-.7-.3-1.7-.3-2.15-.1-.3q-.45-3.55 2.25-4.85 3.25-1.1 4.9-3.3.9-3.8.9-10.2.9-.5 2.1 0l1.8-.4q1.05 5.9-.85 11.9-3.7 2.6-7.4 3.9-3.4 3.9.8 7.8" fill="#840042" fill-rule="evenodd" transform="translate(16.1 12.6)"/><path d="m2.45-10.95 3.45.6Q7.15-2.8 7.45 3.05l-.05 6.4q-1.95 1.25-3.35 1.3-1.65-1.1-3-.65l-.7 1.45-4 .55-1 .1-.2.15-.05-.15q-1.05-3 .6-5.7.1-.95 6.6-5.15 1.8-4.75.15-12.3" fill="#420021" fill-rule="evenodd" transform="translate(16.1 12.6)"/><path d="m-3.75-11.55.15.9q.25 1.25.05 2.65l-.05 1.75q.05 2.5-.55 4.95-.5 2.15-2.75 3.25l-.55.1-.4.45-2.7 1.2.2-.55q3-1.1 4.85-3.6l-.05-.05-.2-.15-.05-.3q1.55-2.6 1-5.5l.35-.3.15-3.1-.15-.15v-.9l.25-.15v-.1l.45-.4m-2.4.1.2.15h.1l.05 2.05-.05.15q0 .05-.1.05l-.1.1-.05 1.25-.25 3.3-.1.75Q-6.6-2-7.35-.4l-.7 1.1-.65.45-1.2.8-1.45.85q-1.05.35-1.55 1.05v.1l-.1 1.2-.55.7q-.5.25-.4.3-.25 2.6 0 3.85l.1 1.15h.05v.05l-.05.05-.05.05-.35-.1-.15-.35-.3-2.4q-.15-1.45.2-2.95.35-1.4.9-2.05l1.5-1.3q.3-.2.15.1l-.05.1 1.35-1 2.1-1.4.15-.3.75-1.7.2-.7v-.1l-.05-.1.05-.6V-9.1l.1-.15.15-.15h.05l.15.05.05-.3H-7v-1.25l.05-.15.3-.2.05-.05h.15q.1 0 .2-.15h.1" fill="#ffd5ea" fill-opacity=".463" fill-rule="evenodd" transform="translate(16.1 12.6)"/><path d="m-.6-1.15-.45 1.7-.25.6-.25.3-4 2.6-2.3.9-3.6.6q-1-.1-1-.8-.2-.4.4-1.1l.3-.2q2.05-.6 3.8-1.8h-.1L-6.25.1l.15-.35.35-1.35-.05.05.4-2.9.15-2.35.35-3.95.05-.25h-.05l-1.8.1q.35 6.25-1.05 10.75-1.65 1.9-4.65 2.95-2.3 1.15-2.1 4.85l.05.4q1.8 1.3 4.3 1.4l8.4-.55L1.85 5q2.1-1.9 5.05-2.1L5.7-10.15q-2.55-1.1-5.35-.55l-.05.4v1.7L.2-6.2l-.25 2.45v.05L-.6-1.15v-.1.1m4.05 11.5-.1-2.6-1.6 2.2q.9-.3 1.7.4m-17.9-1.3q.05 1.6.4 2.1 6.9 1.2 14 .3l.4-1.3.3-.45 1.65-2 1.6-1.8q.75 1.8.75 4.4 1.05-.25 2.3-1.05.5-2.8-.05-5.55-2.35.25-4.15 2.15H2.7l-3.85 4q-4.9 1-9.05.8-2.25-.1-4.25-1.6M-.35-10.6l-.1-.05q-1.9-1.45-3.85-.3v1.1Q-4.35-4.75-5.2.2l-1.15.95q-1.9 1.35-4.7 2.7-.95.75-.2 1.05l2.6-.35 2.9-1.3q1.6-.75 3.95-2.4l-.05.45Q-.4-5.65-.45-7.45l.1-3.15m.6-.9q2.9-.3 6.2.9 1.3 7.8 1.6 13.55v.1L8 9.5l-.2.55q0-.2-.05-.05-2.1 1.3-3.6 1.35h-.1l-.45-.1v-.05q-1.2-.8-2.15-.55L.9 11.8l-.1.25-.3.1q-7.7 1.45-14.9-.3l-.3-.2-.1-.2-.3-1.7-.3-1.7V7.7l-.15-.45q-.5-4.05 2.6-5.55h.05q3-1 4.55-3 .85-3.7.85-9.95l.15-.3.2-.25q1.1-.6 2.6 0l.05.05.15-.05 3.9.2.2.15.2.1.3-.15" fill="#280014" fill-rule="evenodd" transform="translate(16.1 12.6)"/><path d="m-8.5-.45.15-.45.45-.25.55.15 2.2 2.6 4.05-.45q.2-.1.4.2.15.15.15.5l-.2.45-.5.15-3.4-.15 2.55 1.85.2.5-.25.5-.45.2q-.3 0-.45-.2L-5.7 2.3h-3.8l-.55-.2-.1-.5.3-.45q.2-.25.45-.15l3 .6L-8.35.05l-.15-.5m9.35-7 .55.05.3.4v.6l-.3.35L-2-4.9l3.4 1.75.3.45-.05.55-.4.35q-.3.1-.55-.1l-3.5-2.45-3.6 1.75q-.25.15-.5 0l-.35-.35v-.6l.35-.4L-3.75-5-6.5-6.55-6.8-7l.1-.6.4-.3.45.1 3.1 2.4 3.6-2.05" fill="#ff51a8" fill-rule="evenodd" transform="translate(16.1 12.6)"/></g></defs></svg>

<?xml version="1.0" encoding="UTF-8" standalone="no"?>
<svg xmlns:xlink="http://www.w3.org/1999/xlink" height="38.3px" width="36.05px" xmlns="http://www.w3.org/2000/svg">
  <g transform="matrix(1.0, 0.0, 0.0, 1.0, 23.8, 14.85)">
    <use height="25.9" transform="matrix(1.0, 0.0, 0.0, 1.0, -16.1, -12.6)" width="24.65" xlink:href="#shape0"/>
  </g>
  <defs>
    <g id="shape0" transform="matrix(1.0, 0.0, 0.0, 1.0, 16.1, 12.6)">
      <path d="M0.25 -11.5 L-0.05 -11.35 -0.25 -11.45 -0.45 -11.6 -4.35 -11.8 -4.5 -11.75 -4.55 -11.8 Q-6.05 -12.4 -7.15 -11.8 L-7.35 -11.55 -7.5 -11.25 Q-7.5 -5.0 -8.35 -1.3 -9.9 0.7 -12.9 1.7 L-12.95 1.7 Q-16.05 3.2 -15.55 7.25 L-15.4 7.7 -15.4 7.75 -15.4 8.05 -15.1 9.75 -14.8 11.45 -14.7 11.65 -14.4 11.85 Q-7.2 13.6 0.5 12.15 L0.8 12.05 0.9 11.8 1.45 10.65 Q2.4 10.4 3.6 11.2 L3.6 11.25 4.05 11.35 4.15 11.35 6.05 10.9 8.0 9.85 8.05 7.75 8.05 3.05 8.05 2.95 Q7.75 -2.8 6.45 -10.6 3.15 -11.8 0.25 -11.5 Z" fill="none" stroke="#000000" stroke-linecap="round" stroke-linejoin="round" stroke-width="1.0"/>
      <path d="M-3.0 -11.65 Q-1.5 -11.75 -0.3 -10.85 L2.45 -10.95 Q4.1 -3.4 2.3 1.35 -4.2 5.55 -4.3 6.5 -5.95 9.2 -4.9 12.2 L-10.45 11.95 Q-14.65 8.05 -11.25 4.15 -7.55 2.85 -3.85 0.25 -1.95 -5.75 -3.0 -11.65" fill="#660033" fill-rule="evenodd" stroke="none"/>
      <path d="M-10.45 11.95 L-14.25 11.25 -14.55 9.55 -14.85 7.4 -14.95 7.1 Q-15.4 3.55 -12.7 2.25 -9.45 1.15 -7.8 -1.05 -6.9 -4.85 -6.9 -11.25 -6.0 -11.75 -4.8 -11.25 L-3.0 -11.65 Q-1.95 -5.75 -3.85 0.25 -7.55 2.85 -11.25 4.15 -14.65 8.05 -10.45 11.95" fill="#840042" fill-rule="evenodd" stroke="none"/>
      <path d="M2.45 -10.95 L5.9 -10.35 Q7.15 -2.8 7.45 3.05 L7.4 9.45 Q5.45 10.7 4.05 10.75 2.4 9.65 1.05 10.1 L0.35 11.55 -3.65 12.1 -4.65 12.2 -4.85 12.35 -4.9 12.2 Q-5.95 9.2 -4.3 6.5 -4.2 5.55 2.3 1.35 4.1 -3.4 2.45 -10.95" fill="#420021" fill-rule="evenodd" stroke="none"/>
      <path d="M-3.75 -11.55 L-3.6 -10.65 Q-3.35 -9.4 -3.55 -8.0 L-3.6 -6.25 Q-3.55 -3.75 -4.15 -1.3 -4.65 0.85 -6.9 1.95 L-7.45 2.05 -7.85 2.5 -10.55 3.7 -10.35 3.15 Q-7.35 2.05 -5.5 -0.45 L-5.55 -0.5 -5.75 -0.65 -5.8 -0.95 Q-4.25 -3.55 -4.8 -6.45 L-4.45 -6.75 -4.3 -9.85 -4.45 -10.0 -4.45 -10.7 -4.45 -10.9 -4.2 -11.05 -4.2 -11.15 -3.75 -11.55 M-6.15 -11.45 L-5.95 -11.3 -5.85 -11.3 -5.8 -9.25 -5.85 -9.1 Q-5.85 -9.05 -5.95 -9.05 L-6.05 -8.95 -6.1 -7.7 -6.35 -4.4 -6.45 -3.65 Q-6.6 -2.0 -7.35 -0.4 L-8.05 0.7 -8.7 1.15 -9.9 1.95 -11.35 2.8 Q-12.4 3.15 -12.9 3.85 L-12.9 3.95 -13.0 5.15 -13.55 5.85 Q-14.05 6.1 -13.95 6.15 -14.2 8.75 -13.95 10.0 L-13.85 11.15 -13.8 11.15 -13.8 11.2 -13.85 11.25 -13.9 11.3 -14.25 11.2 -14.4 10.85 -14.7 8.45 Q-14.85 7.0 -14.5 5.5 -14.15 4.1 -13.6 3.45 L-12.1 2.15 Q-11.8 1.95 -11.95 2.25 L-12.0 2.35 -10.65 1.35 -8.55 -0.05 -8.4 -0.35 -7.65 -2.05 -7.45 -2.75 -7.45 -2.85 -7.5 -2.95 -7.45 -3.55 -7.45 -8.55 -7.45 -8.6 -7.45 -9.1 -7.35 -9.25 -7.2 -9.4 -7.15 -9.4 -7.0 -9.35 -6.95 -9.65 -7.0 -9.65 -7.0 -10.9 -6.95 -11.05 -6.65 -11.25 -6.6 -11.3 -6.45 -11.3 Q-6.35 -11.3 -6.25 -11.45 L-6.15 -11.45" fill="#ffd5ea" fill-opacity="0.4627451" fill-rule="evenodd" stroke="none"/>
      <path d="M-0.6 -1.15 L-1.05 0.55 -1.3 1.15 -1.55 1.45 -5.55 4.05 -7.85 4.95 -11.45 5.55 Q-12.45 5.45 -12.45 4.75 -12.65 4.35 -12.05 3.65 L-11.75 3.45 Q-9.7 2.85 -7.95 1.65 L-8.05 1.65 -6.25 0.1 -6.1 -0.25 -5.75 -1.6 -5.8 -1.55 -5.4 -4.45 -5.25 -6.8 -4.9 -10.75 -4.85 -11.0 -4.9 -11.0 -6.7 -10.9 Q-6.35 -4.65 -7.75 -0.15 -9.4 1.75 -12.4 2.8 -14.7 3.95 -14.5 7.65 L-14.45 8.05 Q-12.65 9.35 -10.15 9.45 L-1.75 8.9 1.85 5.0 Q3.95 3.1 6.9 2.9 L5.7 -10.15 Q3.15 -11.25 0.35 -10.7 L0.3 -10.3 0.3 -8.65 0.3 -8.6 0.2 -6.2 -0.05 -3.75 -0.05 -3.7 -0.6 -1.15 -0.6 -1.25 -0.6 -1.15 M3.45 10.35 L3.35 7.75 1.75 9.95 Q2.65 9.65 3.45 10.35 M-14.45 9.05 Q-14.4 10.65 -14.05 11.15 -7.15 12.35 -0.05 11.45 L0.35 10.15 0.65 9.7 2.3 7.7 3.9 5.9 Q4.65 7.7 4.65 10.3 5.7 10.05 6.95 9.25 7.45 6.45 6.9 3.7 4.55 3.95 2.75 5.85 L2.7 5.85 -1.15 9.85 Q-6.05 10.85 -10.2 10.65 -12.45 10.55 -14.45 9.05 M-0.35 -10.6 L-0.45 -10.65 Q-2.35 -12.1 -4.3 -10.95 L-4.3 -9.85 Q-4.35 -4.75 -5.2 0.2 L-6.35 1.15 Q-8.25 2.5 -11.05 3.85 -12.0 4.6 -11.25 4.9 L-8.65 4.55 -5.75 3.25 Q-4.15 2.5 -1.8 0.85 L-1.85 1.3 Q-0.4 -5.65 -0.45 -7.45 L-0.35 -10.6 M0.25 -11.5 Q3.15 -11.8 6.45 -10.6 7.75 -2.8 8.05 2.95 L8.05 3.05 8.0 9.5 7.8 10.05 Q7.8 9.85 7.75 10.0 5.65 11.3 4.15 11.35 L4.05 11.35 3.6 11.25 3.6 11.2 Q2.4 10.4 1.45 10.65 L0.9 11.8 0.8 12.05 0.5 12.15 Q-7.2 13.6 -14.4 11.85 L-14.7 11.65 -14.8 11.45 -15.1 9.75 -15.4 8.05 -15.4 7.75 -15.4 7.7 -15.55 7.25 Q-16.05 3.2 -12.95 1.7 L-12.9 1.7 Q-9.9 0.7 -8.35 -1.3 -7.5 -5.0 -7.5 -11.25 L-7.35 -11.55 -7.15 -11.8 Q-6.05 -12.4 -4.55 -11.8 L-4.5 -11.75 -4.35 -11.8 -0.45 -11.6 -0.25 -11.45 -0.05 -11.35 0.25 -11.5" fill="#280014" fill-rule="evenodd" stroke="none"/>
      <path d="M-8.5 -0.45 L-8.35 -0.9 -7.9 -1.15 -7.35 -1.0 -5.15 1.6 -1.1 1.15 Q-0.9 1.05 -0.7 1.35 -0.55 1.5 -0.55 1.85 L-0.75 2.3 -1.25 2.45 -4.65 2.3 -2.1 4.15 -1.9 4.65 -2.15 5.15 -2.6 5.35 Q-2.9 5.35 -3.05 5.15 L-5.7 2.3 -9.5 2.3 -10.05 2.1 -10.15 1.6 -9.85 1.15 Q-9.65 0.9 -9.4 1.0 L-6.4 1.6 -8.35 0.05 -8.5 -0.45" fill="#ff51a8" fill-rule="evenodd" stroke="none"/>
      <path d="M0.85 -7.45 L1.4 -7.4 1.7 -7.0 1.7 -6.4 1.4 -6.05 -2.0 -4.9 1.4 -3.15 1.7 -2.7 1.65 -2.15 1.25 -1.8 Q0.95 -1.7 0.7 -1.9 L-2.8 -4.35 -6.4 -2.6 Q-6.65 -2.45 -6.9 -2.6 L-7.25 -2.95 -7.25 -3.55 -6.9 -3.95 -3.75 -5.0 -6.5 -6.55 -6.8 -7.0 -6.7 -7.6 -6.3 -7.9 -5.85 -7.8 -2.75 -5.4 0.85 -7.45" fill="#ff51a8" fill-rule="evenodd" stroke="none"/>
    </g>
  </defs>
</svg>
